X: 34030
T: Reel De Bergerville
R: reel
M: 4/4
K: Bminor
|:"Bm"B3B BABc|dcde f2d2|B3B BABc|"F#7"dedc "Bm"B2A2|
"Bm"B3B BABc|dcde f2d2|B3B BABc|"F#7"dedc "Bm"B4:|
K: Dmaj
|:"D"A2BA F2AB/c/|dcde f2d2|A2BA FDFA|dAFD "A7"E4|
"D"A2BA F2AB/c/|dcde f2d2|A2BA FAdf|"A7"edce "D"d4:|

